X:1746
T:Väntanpolska
R:Polska
C:Anton Teljebäck
Z:Anton Teljebäck
M:3/4
L:1/16
K:Dm
|:v(DE)FG (Ac)d(c dc)A(G | A)z(cA cA)GA c4 | d3(c AG)Ac e3(e | fe)d(c dc)AF D4 |
 v(DF)A(c dc)dc (AFAc | d)z(dc dc)Ac d3(e | fe)dc (dc)A(c dc)AG |F2AF  (E2C2) D4 :|
|:v(DF)GA B4 G4 | c4 A4 d4 | e4 d4 g4 | a4 ^f4 d4 |
 v(DF)A(c dc)dc (AFAc | d)z(dc dc)Ac d3(e | fe)dc (dc)A(c dc)AG |F2AF  (E2C2) D4 :|
(:musicend:)


(:music:)
